X: 38030
T: Spider In The Sails, The
R: polka
M: 2/4
K: Eminor
BEED EFGA|BEED c2BA|BEED EFGA|B2AF G2 GE|
BEED EFGA|BEED c2BA|BEED EFGA|B2 AF G2 GD|
G>ABc dBdB|G>ABc d2Bd|e2dB c2BA|GEED c2BA|
G>ABc dBdB|G>ABc d2Bd|e2dB c2BA|GEED c4|

